X: 39451
T: Tarantella Philippe Juszczak
R: slide
M: 12/8
K: Gmajor
|:d|ded g2 g ded d2 B-|B2 d ded ded c3-|
c2 d f2 f efe d3-|1 d2 d ded cBA B2:|2 d2 d ded cBA G2-||
|:G|ded B2 B G2 B A3|ded c2 c ded B2 B|
ded B2 B G2 B A3-|1 A2 d ded cBA B2:|2 A2 d ded cBA G2||

